X:62
T:A Cup of Poison - Cayzer
C:Taken down on Dartmoor in 1850 from an old man by T.S.Cayzer.
%%VWML:SBG-1-1-308-0
F:http://www.vwml.org/record/SBG/1/1/308
Z:Original Sibleius Transcription by Martin and Shan Graebe
L:1/8
M:3/8
I:linebreak $
K:G
G | G2 B | d2 d | A B A | F D F | GA B | c2 B | c3 B | A2 G |$ G A B | d2 d | A B A | F D F | 
G A B | c2 B | AG .A | G2 z |] 

